X: 32464
T: Pitlochry High School Centenary, The
R: jig
M: 6/8
K: Gmajor
|:G2 A BAG|cEE EDE|G2A BAG|cEE FGA|
G2A BAG|cEE EDE|D3 GDA|DAA AGF:|
|:G2d dcB|c3 cBA|G2d dcB|AFD DFA|
G2d dcB|c3 cdB|A3 ABG|AFD DFA:|
|:GDA D3|cDB D3|GDA D3|cEE FGA|
GDA D3|cDB D3|Add A3|cdd dcA:|
M:9/8
DGd dDG c3|DGB BDG A3 FGA|
M:6/8
DGd dDG|c3 c2B|A3 ABG|AFD DFA:|

